X:2465
T:Hopsa fr Rby
L:1/8
M:2/4
O:Denmark
R:Hopsa
Z:Richard Robinson 
%%TUNEURL: http://www.leeds.ac.uk/music/Info/RRTuneBk/gettune/00000a7f.html
%%ID:00000a7f
K:D
F/F/|\
FA, DF | AD FA | dF Ad | f2 ed |1 \
ce EF | G2 cB | Ad FG | A3 F/F/ :|2 \
ce EF | GA Bc | d2 d2 | d2 z :|
|:\
ce ce | a2 gf | e2 AB | c3 e| \
dc Bc | de fg | ba gf ec d^d | \
e2ce | a2 gf | e2 AB | c3e |
dc Bc | de fg |\
|1 a2a2 | ae/e/ ee:|2 a2a2 a2z2 |\
K:D
|:\
f2 (3fec | d2 (3dcA | \
A2 (3AFD | A,D FA |
G2 (3GFG | EA ce | d2 (3dcd | fd A2 | \
f2 (3fec | d2 (3dcB | \
A2 (3AFD | A,D FA |\
G2 (3GFG | EA ce | d2 d2 |1 dA/A/ AA :|2 d3 |]
